X:1
P: Glenora Reel
C: John Campbell
C: from the internet
M: 4/4
R: reel
K: Em
|: efaf e2 dB|defd dgfd|efaf edB^c|d2 AF (3EEE E2:|
|: BEEF B2 B^c|defe dBAe|BEEF B2 B^c|d2 AF (3EEE E2:|
